X:5105
T:Sunday in Omeath
M:2/4
R:Polka
L:1/8
Q:280
C:Aidan Crossey
K:D
|:A>B AF|Af d>e|ge e e/f/|ge e/f/d/B/|
A>B AF|Af d>e|ge e/f/g/e/|d2 d2:||
|:fd d e/f/|ge e f/g/|af ge|dc A2|
fd d e/f/|ge e f/g/|af ge|ce d2:||
